X:1
T:The King’s Highway
T:The King’s Highway
T:John Robson Sweney, 1881
T:Thoro Harris, 1876
T:Public Domain Courtesy of the Cyber Hymnal™
T:Public Domain Courtesy of the Cyber Hymnal™
C:John Robson Sweney, 1881
Z:Public Domain
Z:Courtesy of the Cyber Hymnal™
%%score 1 2
L:1/8
Q:1/4=115
M:3/4
K:G
V:1 treble 
V:2 bass 
V:1
 [B,D]2 [B,D]>[DB] [DB]2 | [^C^A]2 [DB]4 | [B,D]2 [CE]>[EG] [EG]2 | [Ec]2 [Ec]4 | %4
w: 1.~Wher- ev- er you|may be,|what- ev- er you|may see,|
w: 2.~The mea- dows may|be green,|where by- path stile|is seen,|
w: 3.~For on en- chant-|ed ground,|there’s dan- ger all|a- round,|
w: 4.~Our God will guide|us right,|and walk- ing in|the light,|
 [Ec][Gc] [GB]>[FA] [GB]2 | [Ac]2 [Gd]2 [GB]2 | [GB]G ([FA]4 | E>E F4) | D2 D>[DB] [DB]2 | %9
w: That would lead you in-|to e- vil,|say you nay,||I will not turn|
w: Turn a- side, the li-|ttle flow- ers|seem to say;||Be sure you take|
w: And a thou- sand plea-|sant voic- es|bid you stay,||With fin- gers stop|
w: We shall win a crown|of glo- ry|in the day,||When Je- sus calls|
 [^C^A]2 [DB]4 | [B,D]2 [CE]>[EG] [EG]2 | [Ec]2 [Ec]4 | [Gc]2 [GB]>[FA] [GB]2 | %13
w: a- side;|what- ev- er may|be- tide,|I’ll keep a- long|
w: no heed—|they’re try- ing to|mis- lead—|Just keep a- long|
w: your ears,|and ne- ver mind|the jeers,|Just keep a- long|
w: His own|to- ge- ther round|the throne,|Who keep a- long|
 [Ac]2 [Gd][Ge] [Gd]2 | ([EG][^DA]) [=DB]4 | [DA]2 [DG]4 ||"^Refrain" B2 (BG G2) | [EG]2 [^DF]4 | %18
w: the mid- dle of|the * King’s|high- way.|||
w: the mid- dle of|the * King’s|high- way.|||
w: the mid- dle of|the * King’s|high- way.|The King’s * *|high- way,|
w: the mid- dle of|the * King’s|high- way.|||
 G2 (BG G2) | [EG]2 [^DF]4 | [^DF]2 [EG]>[DF] [EG]2 | [EG]2 [FA][=F^G] [^FA]2 | [Fd]2 [E^c]4 | %23
w: |||||
w: |||||
w: the King’s * *|high- way,|I’ll keep a- long|the mid- dle of|the King’s|
w: |||||
 [Ge]2 [Fd]4 | D2 D>[DB] [DB]2 | [^C^A]2 [DB]4 | [B,D]2 [CE]>[EG] [EG]2 | [Ec]2 [Ec]4 | %28
w: |||||
w: |||||
w: high- way;|I will not turn|a- side;|what- ev- er may|be- tide,|
w: |||||
 [Gc]2 [GB]>[FA] [GB]2 | [Ac]2 [Gd][Ge] [Gd]2 | ([EG][^DA]) [=DB]4 | [DA]2 [DG]4 |] %32
w: ||||
w: ||||
w: I’ll keep a- long|the mid- dle of|the * King’s|high- way.|
w: ||||
V:2
 [G,,G,]2 [G,,G,]>[G,,G,] [G,,G,]2 | [G,,G,]2 [G,,G,]4 | [G,,G,]2 [C,G,]>[C,C] [C,C]2 | %3
 [C,G,]2 [C,G,]4 | [C,G,][C,E] [G,D]>[G,D] [G,D]2 | [G,C]2 [G,B,]2 [G,D]2 | [G,D][B,,D] ([D,D]4 | %7
 [A,,^C]>[A,,C] [D,D]4) | [D,C]2 [G,B,]>[G,,G,] [G,,G,]2 | [G,,G,]2 [G,,G,]4 | %10
 [G,,G,]2 [C,G,]>[C,C] [C,C]2 | [C,G,]2 [C,G,]4 | [C,E]2 [G,D]>[G,D] [G,D]2 | %13
 [G,C]2 [G,B,][G,C] [G,B,]2 | [C,G,]2 [D,G,]4 | [D,C]2 [G,,B,]4 || z3 ([E,B,] [E,B,]2) | %17
 [E,B,]2 [B,,B,]4 | z3 [E,B,] [E,B,]2 | [E,B,]2 [B,,B,]4 | [B,,B,]2 [E,B,]>[E,B,] [E,B,]2 | %21
 [E,B,]2 [D,D][D,D] [D,D]2 | [D,A,]2 A,4 | [A,,A,]2 [D,A,]4 | [D,C]2 [G,B,]>[G,,G,] [G,,G,]2 | %25
 [G,,G,]2 [G,,G,]4 | [G,,G,]2 [C,G,]>[C,C] [C,C]2 | [C,G,]2 [C,G,]4 | [C,E]2 [G,D]>[G,D] [G,D]2 | %29
 [G,C]2 [G,B,][G,C] [G,B,]2 | [C,G,]2 [D,G,]4 | [D,C]2 [G,,B,]4 |] %32

